src/img/icons/delete.svg

<svg width="32" height="32" viewBox="0 0 32 32" fill="none" xmlns="http://www.w3.org/2000/svg">
<path d="M8.26936 30C7.56153 30 6.95223 29.7446 6.44147 29.2339C5.93071 28.7231 5.67532 28.1138 5.67532 27.406V5.34816H5.04184C4.74666 5.34816 4.49929 5.24783 4.29974 5.04717C4.09991 4.84652 4 4.59777 4 4.30093C4 4.00436 4.09991 3.75755 4.29974 3.56049C4.49929 3.36342 4.74666 3.26489 5.04184 3.26489H11.2158C11.2158 2.91111 11.3395 2.61192 11.5868 2.36732C11.8339 2.12244 12.1319 2 12.4807 2H20.3942C20.743 2 21.041 2.12355 21.288 2.37064C21.5354 2.618 21.6591 2.91609 21.6591 3.26489H27.833C28.1282 3.26489 28.3756 3.36522 28.5751 3.56587C28.775 3.76681 28.8749 4.01556 28.8749 4.31212C28.8749 4.60896 28.775 4.85591 28.5751 5.05298C28.3756 5.24977 28.1282 5.34816 27.833 5.34816H27.1996V27.406C27.1996 28.1138 26.9442 28.7231 26.4334 29.2339C25.9226 29.7446 25.3134 30 24.6055 30H8.26936ZM25.1159 5.34816H7.75901V27.406C7.75901 27.5549 7.80862 27.6772 7.90784 27.7729C8.00707 27.8685 8.12757 27.9163 8.26936 27.9163H24.6055C24.7473 27.9163 24.8678 27.8685 24.967 27.7729C25.0663 27.6772 25.1159 27.5549 25.1159 27.406V5.34816ZM13.3198 24.4765C13.6166 24.4765 13.8636 24.3768 14.0606 24.1772C14.2574 23.9774 14.3558 23.7299 14.3558 23.4347V9.80242C14.3558 9.51415 14.2555 9.26844 14.0548 9.0653C13.8542 8.86215 13.6054 8.76058 13.3086 8.76058C13.012 8.76058 12.7652 8.86215 12.5682 9.0653C12.3711 9.26844 12.2726 9.51415 12.2726 9.80242V23.4347C12.2726 23.7299 12.3729 23.9774 12.5735 24.1772C12.7745 24.3768 13.0232 24.4765 13.3198 24.4765ZM19.5663 24.4765C19.8629 24.4765 20.1097 24.3768 20.3067 24.1772C20.5038 23.9774 20.6023 23.7299 20.6023 23.4347V9.80242C20.6023 9.51415 20.502 9.26844 20.3013 9.0653C20.1004 8.86215 19.8517 8.76058 19.5551 8.76058C19.2583 8.76058 19.0113 8.86215 18.8142 9.0653C18.6174 9.26844 18.5191 9.51415 18.5191 9.80242V23.4347C18.5191 23.7299 18.6194 23.9774 18.82 24.1772C19.0207 24.3768 19.2694 24.4765 19.5663 24.4765Z" fill="#131212"/>
</svg>

<svg xmlns="http://www.w3.org/2000/svg" viewBox="0 0 32 32">
  <path fill="currentColor" d="M8.27 30a2.495 2.495 0 0 1-1.829-.766 2.495 2.495 0 0 1-.766-1.828V5.348h-.633c-.295 0-.543-.1-.742-.3-.2-.201-.3-.45-.3-.747s.1-.543.3-.74c.2-.198.447-.296.742-.296h6.174c0-.354.123-.653.37-.898.248-.245.546-.367.895-.367h7.913c.349 0 .647.124.894.37.247.248.371.546.371.895h6.174c.295 0 .543.1.742.3.2.202.3.45.3.747s-.1.544-.3.741c-.2.197-.447.295-.742.295H27.2v22.058c0 .708-.256 1.317-.767 1.828-.51.51-1.12.766-1.828.766H8.27ZM25.115 5.348H7.759v22.058a.502.502 0 0 0 .51.51h16.337a.502.502 0 0 0 .51-.51V5.348ZM13.32 24.477a1.016 1.016 0 0 0 1.036-1.042V9.802c0-.288-.1-.534-.301-.737-.2-.203-.45-.304-.746-.304a.989.989 0 0 0-.74.304 1.02 1.02 0 0 0-.296.737v13.633c0 .295.1.542.3.742.201.2.45.3.747.3Zm6.246 0c.297 0 .544-.1.74-.3.198-.2.296-.447.296-.742V9.802c0-.288-.1-.534-.3-.737a1.01 1.01 0 0 0-.747-.304.99.99 0 0 0-.74.304 1.02 1.02 0 0 0-.296.737v13.633c0 .295.1.542.301.742.2.2.45.3.746.3Z"/>
</svg>
